gama.ui.shared/icons_svg/light/viewers/set.delimiter.svg

<svg height="25" viewBox="-673 -3425.887 25 25" width="25" xmlns="http://www.w3.org/2000/svg"><g fill="none"><path d="m-668.66-3425.3874h16.32c2.1208 0 3.84 1.7194 3.84 3.84v16.32c0 2.1208-1.7192 3.84-3.84 3.84h-16.32c-2.1208 0-3.84-1.7192-3.84-3.84v-16.32c0-2.1206 1.7192-3.84 3.84-3.84z" fill="#fff"/><g stroke-linecap="round" stroke-linejoin="round"><path d="m-668.66-3425.3874h16.32c2.1208 0 3.84 1.7194 3.84 3.84v16.32c0 2.1208-1.7192 3.84-3.84 3.84h-16.32c-2.1208 0-3.84-1.7192-3.84-3.84v-16.32c0-2.1206 1.7192-3.84 3.84-3.84z" stroke="#000" stroke-width=".25"/><path d="m-663.78744-3406.16 1.76344-6.731h4.6882l-2.45164 6.731zm1.13978-11.3763c0-.3584.07166-.6987.21506-1.0215.1434-.3225.3369-.6022.58064-.8387.24376-.2365.53046-.4229.86022-.5591.32974-.1364.681-.2044 1.05374-.2044.3441 0 .67744.068 1 .2044.3226.1362.6022.3226.8387.5591.2366.2365.42655.5162.5699.8387.1434.3228.2151.6631.2151 1.0215 0 .3728-.0717.7169-.2151 1.0323-.14335.3154-.3333.588-.5699.8172-.2365.2294-.5161.4122-.8387.5484-.32256.1364-.6559.2044-1 .2044-.37274 0-.724-.068-1.05374-.2044-.32976-.1362-.61646-.319-.86022-.5484-.24374-.2292-.43724-.5018-.58064-.8172s-.21506-.6595-.21506-1.0323z" stroke="#66727e"/></g></g></svg>

<?xml version="1.0" encoding="UTF-8" standalone="no"?>
<!DOCTYPE svg PUBLIC "-//W3C//DTD SVG 1.1//EN" "http://www.w3.org/Graphics/SVG/1.1/DTD/svg11.dtd">
<svg xmlns:dc="http://purl.org/dc/elements/1.1/" xmlns:xl="http://www.w3.org/1999/xlink" version="1.1" xmlns="http://www.w3.org/2000/svg" viewBox="-673 -3425.8874 25 25" width="25" height="25">
  <defs/>
  <g id="SOURCES" stroke-dasharray="none" stroke="none" stroke-opacity="1" fill="none" fill-opacity="1">
    <title>SOURCES</title>
    <g id="SOURCES_Calque_2">
      <title>Calque 2</title>
      <g id="Graphic_9882">
        <path d="M -668.66 -3425.3874 L -652.34 -3425.3874 C -650.2192 -3425.3874 -648.5 -3423.668 -648.5 -3421.5474 L -648.5 -3405.2274 C -648.5 -3403.1066 -650.2192 -3401.3874 -652.34 -3401.3874 L -668.66 -3401.3874 C -670.7808 -3401.3874 -672.5 -3403.1066 -672.5 -3405.2274 L -672.5 -3421.5474 C -672.5 -3423.668 -670.7808 -3425.3874 -668.66 -3425.3874 Z" fill="white"/>
        <path d="M -668.66 -3425.3874 L -652.34 -3425.3874 C -650.2192 -3425.3874 -648.5 -3423.668 -648.5 -3421.5474 L -648.5 -3405.2274 C -648.5 -3403.1066 -650.2192 -3401.3874 -652.34 -3401.3874 L -668.66 -3401.3874 C -670.7808 -3401.3874 -672.5 -3403.1066 -672.5 -3405.2274 L -672.5 -3421.5474 C -672.5 -3423.668 -670.7808 -3425.3874 -668.66 -3425.3874 Z" stroke="black" stroke-linecap="round" stroke-linejoin="round" stroke-width=".25"/>
      </g>
      <g id="Graphic_9884">
        <path d="M -663.78744 -3406.16 L -662.024 -3412.891 L -657.3358 -3412.891 L -659.78744 -3406.16 Z M -662.64766 -3417.5363 C -662.64766 -3417.8947 -662.576 -3418.235 -662.4326 -3418.5578 C -662.2892 -3418.8803 -662.0957 -3419.16 -661.85196 -3419.3965 C -661.6082 -3419.633 -661.3215 -3419.8194 -660.99174 -3419.9556 C -660.662 -3420.092 -660.31074 -3420.16 -659.938 -3420.16 C -659.5939 -3420.16 -659.26056 -3420.092 -658.938 -3419.9556 C -658.6154 -3419.8194 -658.3358 -3419.633 -658.0993 -3419.3965 C -657.8627 -3419.16 -657.67275 -3418.8803 -657.5294 -3418.5578 C -657.386 -3418.235 -657.3143 -3417.8947 -657.3143 -3417.5363 C -657.3143 -3417.1635 -657.386 -3416.8194 -657.5294 -3416.504 C -657.67275 -3416.1886 -657.8627 -3415.916 -658.0993 -3415.6868 C -658.3358 -3415.4574 -658.6154 -3415.2746 -658.938 -3415.1384 C -659.26056 -3415.002 -659.5939 -3414.934 -659.938 -3414.934 C -660.31074 -3414.934 -660.662 -3415.002 -660.99174 -3415.1384 C -661.3215 -3415.2746 -661.6082 -3415.4574 -661.85196 -3415.6868 C -662.0957 -3415.916 -662.2892 -3416.1886 -662.4326 -3416.504 C -662.576 -3416.8194 -662.64766 -3417.1635 -662.64766 -3417.5363 Z" stroke="#66727e" stroke-linecap="round" stroke-linejoin="round" stroke-width="1"/>
      </g>
    </g>
  </g>
</svg>
